src/assets/icons/vimeoIcon.svg

<svg width="24" height="24" fill="none" xmlns="http://www.w3.org/2000/svg"><path d="m3 8.5 1 1S5.5 8.398 6 9c.509.609 1.863 7.65 2.5 9 .556 1.184 1.978 2.89 4 1.5C14.5 18 20 14 21 8c.444-2.661-1-4-2.5-4-2 0-4.047 1.202-4.5 4 2.05-1.254 2.551 1.003 1.5 3-1.052 2.005-2 3-2.5 3-.49 0-.924-1.165-1.5-3.5-.59-2.42-.5-6.5-3-6.5S3 8.5 3 8.5Z" stroke="#fff" stroke-width="1.5" stroke-linecap="round" stroke-linejoin="round"/></svg>

<svg width="24" height="24" viewBox="0 0 24 24" fill="none" xmlns="http://www.w3.org/2000/svg">
<path d="M3 8.5L4 9.5C4 9.5 5.5 8.398 6 9C6.509 9.609 7.863 16.65 8.5 18C9.056 19.184 10.478 20.89 12.5 19.5C14.5 18 20 14 21 8C21.444 5.339 20 4 18.5 4C16.5 4 14.453 5.202 14 8C16.05 6.746 16.551 9.003 15.5 11C14.448 13.005 13.5 14 13 14C12.51 14 12.076 12.835 11.5 10.5C10.91 8.08 11 4 8.5 4C6 4 3 8.5 3 8.5Z" stroke="#D7D7D7" stroke-width="1.5" stroke-linecap="round" stroke-linejoin="round"/>
</svg>
